X:52
T:Lanquenet
M:6/8
L:1/8
B:Thompson's Compleat Collection of 200 Favourite Country Dances, vol. 1 (London, 1757)
Z:Transcribed and edited by Fynnian Titford-Mock, 2007
Z:abc's:AK/Fiddler's Companion
K:A
e|Ac(e e)cA|d2(f f2)a|Ac(e e)cA|G2(B B2)c|Ac(e e)cA|d2(f f2)a|gfe fe^d|e3 E2:|
|:f/g/|aec aec|d2(f f2)a|ecA ecA|G2(B B)cd|ecA ecA|d2(f f)ga|ecA dBG|(A3 A2):|

